!!!OTL: "Der Teppichkraemer" VOM TYROL SAN MA AUSSA
!!!ARE: Europa, Mitteleuropa, Tirol
!!!SCT: Z1285
!!!YEM: Copyright 1995, estate of Helmut Schaffrath.
**kern
*ICvox
*Ivox
*M3/4
*k[f#]
*G:
{8.d
16d
=1
4g
4.g
8a
=2
4b
4b}
{4ee
=3
4dd
4cc
8cc
8f#
=4
2g}
{8.d
16d
=5
4g
4.g
8a
=6
4b
4b}
{4ee
=7
4dd
4cc
8cc
8f#
=8
4g
4r}
{8.a
16a
=9
4a
4a
8a
8a
=10
8a
8dd
4a}
{8f#
8g
=11
4a
4a
8a
8a
=12
8a
8ff#
4dd}
{8f#
8g
=13
4a
8dd
8a
8dd
8ff#
=14
4.aa}
{8ff#
8bb
8aa
=15
8.cc#
16bb
8aa
8gg
8b
8cc
=16
2dd}
{8.d
16d
=17
4g
4.g
8a
=18
4b
4b}
{4ee
=19
4dd
4cc
8cc
8f#
=20
2g}
==
!!!AGN: Handwerker -, Bauern - Lied
!!!ONB: ESAC (Essen Associative Code) Database: ZUCCAL
!!!AMT: simple triple
!!!AIN: vox
!!!EED: Helmut Schaffrath
!!!EEV: 1.0
*-
